X: 533
T:Eileen Ni Riordan (in A)
M:3/4
L:1/8
S:Neil Baillie
R:Waltz
N:Posted to the woodenflute mailing list June 2002
Z:Andrew Pickering
K:A
cd|(e2 e)f ed|c2 A2 Bc|d2 dc BA|G2 E2 FG|
(A2 A)B AE|FG AB cd|1 e2 a2 ag|ag e2:|2 e2 a2 g2|a4||
fg|(a2 a)g ae|de d=c A2|(=g2 g)d BA|=G2 AG E2|
A2 E2 A2|Bc d2 B2|1 e2 a2 ag|ag e2:|2 e2 a2 g2|a4||

